X: 1
T: Flags Of Dublin, The
M: 4/4
L: 1/8
R: reel
K: Dmaj
|: d/c/B |\ 
ADFA BcdB | AD F/E/D BEEF | 
A/B/A FA Bcde |[1 fdec d2 :|[2 gece d2 ||
|: dA |\
dc d/e/f edeg | fdec dcBA |
[1 d2 df e2 ef | gece d2 :|
[2 GBB^A Bcde | fecA d2 |]
N: No mention of 'du*li*at*on has been made...
